X: 15145
T: Gigue Canadienne
R: reel
M: 4/4
K: Dmajor
A3B|:cAAA cABc|dedc B3d|cAAA cABc|1 dedB AAAB:|2 dedB A3c3/4g/4||
|:a2g2 fcB c3/4g/4|a2g2 f2cB|cedc BBB c3/4g/4|a2g2 fcB c3/4g/4|a2g2 f2cB|1 cedc A3 c3/4g/4:|2 cedc A3B||

